X: 1
T: Sweet Maid Of Glendaruel
R: March
M: 2/4
L: 1/8
K: Amix
|: e | A>B cd | e>c Ad | cA ec |cB Be|
A>B cd | e>c AB/>c/ | d>B GB | BA A :|
|: g | fe a>f | e>c Ag | fe ac | cB Bg |
[1 fe a>f | e>c AB/>c/ | d>B GB | BA A :|
[2 fe fd | e>c AB/>c/ | d>B GB | BA A ||
